X:5
T:Pathways
C:Jackie Tolliday-Bailey
M:4/4
L:1/8
K:Bm
ABcB ABcB |ABcB A4 | Bcdc Bcdc | Bcdc B4 |
ABcB ABcB |ABcA e4 | e2 Bcdc B2 | GBdB A4 ||
ABcd e2 z2 | GABc d2 z2 | ABcd e2 z2 | efed edcB |
ABcd e2 z2 | GABc d2 z2 | ABcd e2 z2 | dG dB A2 ||

